svg-color/apex_launcher.round.svg

<?xml version="1.0" encoding="UTF-8"?>
<svg id="svg841" width="32" height="32" version="1.1" viewBox="0 0 32 32" xmlns="http://www.w3.org/2000/svg">
 <path id="rect4887" d="m2.3077e-8 3v26c-2.3077e-8 2 1 3 3 3h26c2-3e-6 3-1 3-3v-26c0-2-1-3-3-3h-26c-2-3.3374e-6 -3 1-3 3zm18 3 3.5 3.5v-2h2.5v4.5l4 4-1.7676 1.7676-10.232-10.232-10.232 10.232-1.7676-1.7676 10-10c2-2 2-2 4 0zm-10 11.5h2.5v7h11v-7h2.5v8.5c0 0.50343-0.49815 1-1 1s-13.499-3e-6 -14 0-1-0.45895-1-0.96094z" fill="#4685ed" opacity=".97" style="paint-order:markers fill stroke"/>
</svg>

<svg width="32" height="32" viewBox="0 0 32 32" xmlns="http://www.w3.org/2000/svg">
    <path d="M0 3v26c0 2 1 3 3 3h26c2 0 3-1 3-3V3c0-2-1-3-3-3H3C1 0 0 1 0 3zm18 3l3.5 3.5v-2H24V12l4 4-1.768 1.768L16 7.536 5.768 17.768 4 16 14 6c2-2 2-2 4 0zM8 17.5h2.5v7h11v-7H24V26c0 .503-.498 1-1 1H9c-.5 0-1-.46-1-.96z" fill="#4685ed" opacity=".97" paint-order="markers fill stroke"/>
</svg>
